X: 42
T: Over the Water #2   [C]
O: Walter Rainstorp 1747
R: jig
Z: 2019 John Chambers <jc:trillian.mit.edu>
S: Handwritten MS via Darlene Wigton 2019-7-20
M: 6/8
L: 1/8
K: C
|:\
"C"G2G "(F)"GAF | "G7"EFD "C"CEF | "C"G2G GEG | "F"A3 "C"c3 |\
"C"C2C "(Am)"CDE | "Dm"F2E "G7"D2B | "F"cBA "C"GEG | "F"A3 "C"c3 :|
|:\
"C"c2d "Am"e2f | "Dm"dec "G7"dBG | "C"c2d "Am"efe | "Dm"d3 "G7"G3 |\
"C"c2d efe | "Am"edc "G7"BAG | "F"(A{B}c)A "C"GEG | "F"A3 "C"c3 :|
% %begintext align
% % 1.t Cu. cast off one Cu .|
% % 1.t Man cast down 1.t Wo cast up :|
% % 1.t Man falls in between 3.d Cu.
% % 1.t Wo between 2.d Cu. meet & foot it and turn Partner. .|
% % 1.t Man between 2.d & 3.d We, and the 1.t Wo.
% % between 2.d & 3.d Men, meet, foot it & turn Partner :|
% % set Corners .| :|
% % lead out Sides .|. :|:
% %endtext

%%sep 2 1 500

